src/images_karasa_jaga_svg/cmd/sc_flowchartshapes.flowchart-sequential-access.svg

<svg height="16" viewBox="0 0 16 16" width="16" xmlns="http://www.w3.org/2000/svg" xmlns:xlink="http://www.w3.org/1999/xlink"><linearGradient id="a" gradientUnits="userSpaceOnUse" x1="75.303001" x2="72.844147" y1="201.00064" y2="-34.318104"><stop offset="0" stop-color="#fff"/><stop offset=".42597079" stop-color="#fff"/><stop offset=".5892781" stop-color="#f1f1f1"/><stop offset=".80219781" stop-color="#eaeaea"/><stop offset="1" stop-color="#dfdfdf"/></linearGradient><linearGradient id="b" gradientUnits="userSpaceOnUse" x1="8" x2="120" y1="64" y2="64"><stop offset="0" stop-color="#7c9fcf"/><stop offset=".5" stop-color="#7c9ece"/><stop offset="1" stop-color="#7b9dcf"/></linearGradient><g transform="scale(.125)"><path d="m64 8c-14.660766 0-29.230929 6.035617-39.597656 16.402344s-16.402344 24.93689-16.402344 39.597656 6.035617 29.230929 16.402344 39.59766c10.366727 10.36672 24.93689 16.40234 39.597656 16.40234h48a8.0008 8.0008 0 0 0 8-8v-16a8.0008 8.0008 0 0 0 -5.87305-7.710938c3.66445-7.573496 5.85972-15.861791 5.87305-24.277343a8.0008 8.0008 0 0 0 0-.011719c0-14.660766-6.03562-29.230929-16.40234-39.597656-10.366731-10.366727-24.936894-16.402344-39.59766-16.402344z" fill="url(#b)"/><path d="m64 16a48 48 0 0 0 -48 48 48 48 0 0 0 48 48h48v-16h-12.291016a48 48 0 0 0 12.291016-32 48 48 0 0 0 -48-48z" fill="url(#a)"/></g></svg>

<?xml version="1.0" encoding="UTF-8" standalone="no"?>
<!-- Created with Inkscape (http://www.inkscape.org/) -->

<svg
   xmlns:dc="http://purl.org/dc/elements/1.1/"
   xmlns:cc="http://creativecommons.org/ns#"
   xmlns:rdf="http://www.w3.org/1999/02/22-rdf-syntax-ns#"
   xmlns:svg="http://www.w3.org/2000/svg"
   xmlns="http://www.w3.org/2000/svg"
   xmlns:xlink="http://www.w3.org/1999/xlink"
   xmlns:sodipodi="http://sodipodi.sourceforge.net/DTD/sodipodi-0.dtd"
   xmlns:inkscape="http://www.inkscape.org/namespaces/inkscape"
   version="1.1"
   id="svg2"
   width="128"
   height="128"
   viewBox="0 0 128 128"
   sodipodi:docname="sc_flowchartshapes.flowchart-sequential-access.svg"
   inkscape:export-filename="/home/rizmut/Dokumen/Rizmut/Github/libreoffice-style-karasa-jaga/build/images_karasa_jaga/cmd/sc_flowchartshapes.flowchart-sequential-access.png"
   inkscape:export-xdpi="12"
   inkscape:export-ydpi="12"
   inkscape:version="0.92.3 (unknown)">
  <metadata
     id="metadata8">
    <rdf:RDF>
      <cc:Work
         rdf:about="">
        <dc:format>image/svg+xml</dc:format>
        <dc:type
           rdf:resource="http://purl.org/dc/dcmitype/StillImage" />
        <dc:title></dc:title>
      </cc:Work>
    </rdf:RDF>
  </metadata>
  <defs
     id="defs6">
    <linearGradient
       inkscape:collect="always"
       id="linearGradient825">
      <stop
         style="stop-color:#f9f9fa;stop-opacity:1;"
         offset="0"
         id="stop821" />
      <stop
         style="stop-color:#f9f9fa;stop-opacity:0;"
         offset="1"
         id="stop823" />
    </linearGradient>
    <linearGradient
       inkscape:collect="always"
       xlink:href="#linearGradient825"
       id="linearGradient1536"
       x1="70.052383"
       y1="-18.468208"
       x2="62.030193"
       y2="84.412926"
       gradientUnits="userSpaceOnUse" />
    <linearGradient
       id="linearGradient3369">
      <stop
         id="stop3372"
         offset="0"
         style="stop-color:#ffffff;stop-opacity:1;" />
      <stop
         style="stop-color:#ffffff;stop-opacity:1;"
         offset="0.42597079"
         id="stop3374" />
      <stop
         style="stop-color:#f1f1f1;stop-opacity:1;"
         offset="0.5892781"
         id="stop3376" />
      <stop
         id="stop3378"
         offset="0.80219781"
         style="stop-color:#eaeaea;stop-opacity:1;" />
      <stop
         id="stop3384"
         offset="1"
         style="stop-color:#dfdfdf;stop-opacity:1;" />
    </linearGradient>
    <linearGradient
       inkscape:collect="always"
       xlink:href="#linearGradient3369"
       id="linearGradient8401"
       x1="75.452103"
       y1="202.80788"
       x2="72.960815"
       y2="-35.615067"
       gradientUnits="userSpaceOnUse"
       gradientTransform="matrix(0.98698024,0,0,0.98698024,0.83326481,0.83326481)" />
    <linearGradient
       id="linearGradient7422">
      <stop
         style="stop-color:#7c9fcf;stop-opacity:1"
         offset="0"
         id="stop7424" />
      <stop
         id="stop5348"
         offset="0.5"
         style="stop-color:#7c9ece;stop-opacity:1" />
      <stop
         id="stop7426"
         offset="1"
         style="stop-color:#7b9dcf;stop-opacity:1" />
    </linearGradient>
    <linearGradient
       inkscape:collect="always"
       xlink:href="#linearGradient7422"
       id="linearGradient850"
       x1="8"
       y1="64"
       x2="120"
       y2="64"
       gradientUnits="userSpaceOnUse" />
  </defs>
  <sodipodi:namedview
     pagecolor="#ffffff"
     bordercolor="#666666"
     borderopacity="1"
     objecttolerance="10"
     gridtolerance="10"
     guidetolerance="10"
     inkscape:pageopacity="0"
     inkscape:pageshadow="2"
     inkscape:window-width="1366"
     inkscape:window-height="706"
     id="namedview4"
     showgrid="true"
     inkscape:snap-page="true"
     inkscape:snap-global="true"
     inkscape:zoom="1.7320077"
     inkscape:cx="13.824642"
     inkscape:cy="80.701078"
     inkscape:window-x="0"
     inkscape:window-y="0"
     inkscape:window-maximized="1"
     inkscape:current-layer="svg2"
     inkscape:snap-smooth-nodes="true">
    <inkscape:grid
       type="xygrid"
       id="grid830"
       spacingx="8"
       spacingy="8"
       empspacing="2" />
  </sodipodi:namedview>
  <path
     sodipodi:type="inkscape:offset"
     inkscape:radius="8"
     inkscape:original="M 64 16 A 48 48 0 0 0 16 64 A 48 48 0 0 0 64 112 L 112 112 L 112 96 L 99.708984 96 A 48 48 0 0 0 112 64 A 48 48 0 0 0 64 16 z "
     style="opacity:1;fill:url(#linearGradient850);fill-opacity:1.0;stroke:none;stroke-width:4.60719204;stroke-linecap:square;stroke-linejoin:bevel;stroke-miterlimit:4;stroke-dasharray:none;stroke-dashoffset:0;stroke-opacity:0.73039216"
     id="path840"
     d="M 64,8 C 49.339234,8 34.769071,14.035617 24.402344,24.402344 14.035617,34.769071 8,49.339234 8,64 8,78.660766 14.035617,93.230929 24.402344,103.59766 34.769071,113.96438 49.339234,120 64,120 h 48 a 8.0008,8.0008 0 0 0 8,-8 V 96 a 8.0008,8.0008 0 0 0 -5.87305,-7.710938 C 117.7914,80.715566 119.98667,72.427271 120,64.011719 A 8.0008,8.0008 0 0 0 120,64 C 120,49.339234 113.96438,34.769071 103.59766,24.402344 93.230929,14.035617 78.660766,8 64,8 Z" />
  <path
     style="opacity:1;fill:url(#linearGradient8401);fill-opacity:1;stroke:none;stroke-width:4.60719204;stroke-linecap:square;stroke-linejoin:bevel;stroke-miterlimit:4;stroke-dasharray:none;stroke-dashoffset:0;stroke-opacity:0.73039216"
     d="M 64 16 A 48 48 0 0 0 16 64 A 48 48 0 0 0 64 112 L 112 112 L 112 96 L 99.708984 96 A 48 48 0 0 0 112 64 A 48 48 0 0 0 64 16 z "
     id="rect8390" />
  <path
     id="circle1528"
     style="opacity:1;fill:url(#linearGradient1536);fill-opacity:1;stroke:none;stroke-width:3.85701394;stroke-linecap:round;stroke-linejoin:bevel;stroke-miterlimit:4;stroke-dasharray:none;stroke-dashoffset:0;stroke-opacity:0.73039216"
     r="42.122112"
     cy="64"
     cx="64" />
</svg>
